X: 13516
T: Flowers Of Red Hill, The
R: reel
M: 4/4
K: Amixolydian
eA (3AAA gAfA|eA (3AAA (3efe df|eA (3AAA eAaf|gedB GABd:|
ea (3aaa ba ag|eaag edBd|ea (3aaa ba ag|edeg gedg|
ea (3aaa ba ag|eaag edBd|ea (3aaa aged|edeg gedg||

